X: 1
T:Rian Davies' Hornpipe
M:4/4
L:1/8
C:Stephen McNally
S:© 2002
K:D
A3 B A>GF>d-|d>cd>e f>dA>F|G>GG>A B>GF>G|E4 E>FG>E|
A3 B A>GF>d-|d>cd>e f>dA>F|G>Bg>e c>AB>c|1 d4 d2B>G :|2 d3 A d>ef>d||
g>gg>e c>AB>c|d>cd>e f>dA>F|G>GG>A B>GF>G|E4 E>FG>E|
A3 B A>GF>d-|d>cd>e f>dA>F|G>Bg>e c>AB>c|1 d3 A d>ef>d :|2 d8
